MonoIcons/scalable/status/weather-showers-scattered-symbolic.svg

<?xml version="1.0" encoding="UTF-8"?>
<svg height="16px" viewBox="0 0 16 16" width="16px" xmlns="http://www.w3.org/2000/svg">
    <path d="m 5 1.761719 c -0.214844 0 -0.429688 0.082031 -0.570312 0.25 c -0.25 0.289062 -2.429688 2.898437 -2.429688 4.988281 c 0 0.773438 0.265625 1.5 0.75 2.042969 c 0.390625 0.4375 1.09375 0.957031 2.25 0.957031 c 1.96875 0 3 -1.507812 3 -3 c 0 -2.09375 -2.183594 -4.699219 -2.429688 -4.988281 c -0.144531 -0.167969 -0.355468 -0.25 -0.570312 -0.25 z m 6 4 c -0.214844 0 -0.429688 0.082031 -0.570312 0.25 c -0.25 0.289062 -2.429688 2.898437 -2.429688 4.988281 c 0 0.773438 0.265625 1.5 0.75 2.042969 c 0.390625 0.4375 1.09375 0.957031 2.25 0.957031 c 1.96875 0 3 -1.507812 3 -3 c 0 -2.09375 -2.183594 -4.699219 -2.429688 -4.988281 c -0.144531 -0.167969 -0.355468 -0.25 -0.570312 -0.25 z m 0 0" fill="#2e3436"/>
</svg>

<svg width="16" height="16" viewBox="0 0 16 16" fill="none" xmlns="http://www.w3.org/2000/svg">
<path d="M5 1.76172C4.78516 1.76172 4.57031 1.84375 4.42969 2.01172C4.17969 2.30078 2 4.91016 2 7C2 7.77344 2.26563 8.5 2.75 9.04297C3.14063 9.48047 3.84375 10 5 10C6.96875 10 8 8.49219 8 7C8 4.90625 5.81641 2.30078 5.57031 2.01172C5.42578 1.84375 5.21484 1.76172 5 1.76172V1.76172ZM11 5.76172C10.7852 5.76172 10.5703 5.84375 10.4297 6.01172C10.1797 6.30078 8 8.91016 8 11C8 11.7734 8.26563 12.5 8.75 13.043C9.14063 13.4805 9.84375 14 11 14C12.9688 14 14 12.4922 14 11C14 8.90625 11.8164 6.30078 11.5703 6.01172C11.4258 5.84375 11.2148 5.76172 11 5.76172Z" fill="#2E3436"/>
</svg>
